Hatter-kde/actions/24/overflow-menu-left.svg

<?xml version="1.0" encoding="UTF-8"?>
<svg viewBox="0 0 24 24" xmlns="http://www.w3.org/2000/svg">
 <defs id="defs3051">
  <style id="current-color-scheme" type="text/css">.ColorScheme-Text {
        color:#363636;
      }</style>
 </defs>
 <g transform="translate(1,1)">
  <path class="ColorScheme-Text" d="m10 5v2h2v-2h-2zm-4 5v2h2v-2h-2zm4 0v2h2v-2h-2zm0 5v2h2v-2h-2z" fill="currentColor"/>
 </g>
</svg>

<?xml version="1.0" encoding="UTF-8" standalone="no"?>
<svg xmlns="http://www.w3.org/2000/svg" viewBox="0 0 24 24">
  <defs id="defs3051">
    <style type="text/css" id="current-color-scheme">
      .ColorScheme-Text {
        color:#363636;
      }
      </style>
  </defs><g transform="translate(1,1)">
 <path 
     style="fill:currentColor;fill-opacity:1;stroke:none" 
     d="M 10 5 L 10 7 L 12 7 L 12 5 L 10 5 z M 6 10 L 6 12 L 8 12 L 8 10 L 6 10 z M 10 10 L 10 12 L 12 12 L 12 10 L 10 10 z M 10 15 L 10 17 L 12 17 L 12 15 L 10 15 z "
	 class="ColorScheme-Text"
     />
</g></svg>
